assets/efishery/karung-pakan-ikan-fill.svg

<svg width="24" height="25" viewBox="0 0 24 25" fill="none" xmlns="http://www.w3.org/2000/svg">
<path d="M13.8266 12.1282C13.8266 12.0038 13.9275 11.9028 14.052 11.9028C14.1764 11.9028 14.2774 12.0038 14.2774 12.1282C14.2774 12.2527 14.1764 12.3536 14.052 12.3536C13.9275 12.3536 13.8266 12.2527 13.8266 12.1282Z" fill="#1D1D1D"/>
<path fill-rule="evenodd" clip-rule="evenodd" d="M12.0235 8.29661C9.78283 8.29661 7.96644 10.113 7.96644 12.3536C7.96644 14.5943 9.78283 16.4106 12.0235 16.4106C14.2641 16.4106 16.0805 14.5943 16.0805 12.3536C16.0805 10.113 14.2641 8.29661 12.0235 8.29661ZM12.925 11.0013C12.3393 11.0013 11.8117 11.1769 11.4251 11.3995C11.2588 11.4952 11.109 11.6051 10.9883 11.7228L10.0196 11.077C9.88128 10.9848 9.70343 10.9762 9.55685 11.0546C9.41028 11.1331 9.31878 11.2858 9.31878 11.4521V13.2552C9.31878 13.4214 9.41028 13.5742 9.55685 13.6526C9.70343 13.7311 9.88128 13.7225 10.0196 13.6303L10.9883 12.9844C11.109 13.1021 11.2588 13.212 11.4251 13.3078C11.8117 13.5303 12.3393 13.706 12.925 13.706C13.4777 13.706 14.0004 13.5949 14.4016 13.3943C14.7758 13.2072 15.1789 12.8653 15.1789 12.3536C15.1789 11.8419 14.7758 11.5001 14.4016 11.3129C14.0004 11.1123 13.4777 11.0013 12.925 11.0013Z" fill="#1D1D1D"/>
<path fill-rule="evenodd" clip-rule="evenodd" d="M19.8031 4.81962C19.7793 5.39579 19.5284 6.12023 19.0638 7.01337C19.4888 8.47916 19.6867 10.6639 19.6867 12.6917C19.6867 13.7837 19.6294 14.8554 19.5123 15.7774C19.4214 16.4934 19.2894 17.1635 19.0989 17.6887C19.3084 18.0138 19.5116 18.3714 19.6708 18.7252C19.8687 19.1649 20.0566 19.7216 19.9841 20.2258C19.9439 20.5058 19.8177 20.802 19.5448 21.0203C19.2818 21.2307 18.9606 21.306 18.6489 21.3127C18.0968 21.3246 17.3794 21.1251 16.4789 20.7336C13.3807 21.5813 10.6646 21.5811 7.56611 20.7331C7.18062 20.8963 6.75203 21.0481 6.33826 21.1466C5.87629 21.2566 5.29439 21.3359 4.8135 21.1583C4.5441 21.0589 4.28401 20.8696 4.13064 20.5564C3.98433 20.2576 3.97651 19.9298 4.03126 19.6233C4.12471 19.1 4.43278 18.4608 4.94689 17.6856C4.75705 17.1609 4.62541 16.492 4.53467 15.7774C4.41759 14.8554 4.36025 13.7837 4.36025 12.6917C4.36025 10.6829 4.55449 8.51992 4.97133 7.05461C4.75362 6.72001 4.54119 6.34899 4.37609 5.98211C4.1782 5.54236 3.99032 4.98567 4.0628 4.48148C4.10305 4.20145 4.22919 3.90531 4.50215 3.68695C4.76513 3.47656 5.08631 3.40124 5.39796 3.39454C5.94745 3.38274 6.66066 3.58025 7.55514 3.96805C8.94304 3.54386 10.5988 3.33804 12.1362 3.33804C13.589 3.33804 15.025 3.52165 16.0578 3.93947C16.4271 3.7549 16.835 3.58128 17.2354 3.4581C17.7174 3.30977 18.3124 3.19434 18.8254 3.34182C19.1066 3.42264 19.383 3.58889 19.5734 3.87952C19.7584 4.16181 19.8166 4.49151 19.8031 4.81962ZM7.06488 12.3536C7.06488 9.61508 9.28491 7.39505 12.0235 7.39505C14.762 7.39505 16.982 9.61508 16.982 12.3536C16.982 15.0922 14.762 17.3122 12.0235 17.3122C9.28491 17.3122 7.06488 15.0922 7.06488 12.3536Z" fill="#1D1D1D"/>
</svg>

<svg viewBox="0 0 24 25" xmlns="http://www.w3.org/2000/svg">
  <path d="M13.827 12.128a.225.225 0 1 1 .45 0 .225.225 0 0 1-.45 0z"/>
  <path fill-rule="evenodd" clip-rule="evenodd" d="M12.024 8.297a4.057 4.057 0 1 0 0 8.114 4.057 4.057 0 0 0 0-8.114zM12.925 11c-.586 0-1.113.176-1.5.399a2.203 2.203 0 0 0-.437.323l-.968-.646a.45.45 0 0 0-.701.375v1.803a.45.45 0 0 0 .7.375l.97-.646c.12.118.27.228.436.324.387.222.914.398 1.5.398.553 0 1.075-.111 1.477-.312.374-.187.777-.529.777-1.04 0-.512-.403-.854-.777-1.041-.402-.2-.924-.312-1.477-.312z"/>
  <path fill-rule="evenodd" clip-rule="evenodd" d="M19.803 4.82c-.024.576-.275 1.3-.74 2.193.426 1.466.624 3.65.624 5.679 0 1.092-.058 2.163-.175 3.085-.09.716-.223 1.386-.413 1.912.21.325.413.682.572 1.036.198.44.386.997.313 1.5-.04.28-.166.577-.44.795-.262.21-.583.286-.895.293-.552.012-1.27-.188-2.17-.58-3.098.848-5.814.848-8.913 0a7.968 7.968 0 0 1-1.228.414c-.462.11-1.044.189-1.524.011-.27-.1-.53-.288-.683-.602-.147-.298-.154-.626-.1-.933.094-.523.402-1.162.916-1.937-.19-.525-.322-1.194-.412-1.909a25.157 25.157 0 0 1-.175-3.085c0-2.01.194-4.172.611-5.637a8.145 8.145 0 0 1-.595-1.073c-.198-.44-.386-.996-.313-1.5.04-.28.166-.577.44-.795.262-.21.583-.286.895-.292.55-.012 1.263.185 2.157.573 1.388-.424 3.044-.63 4.581-.63 1.453 0 2.889.184 3.922.601.37-.184.777-.358 1.177-.48.482-.15 1.077-.265 1.59-.117.282.08.558.247.748.538.185.282.244.612.23.94zM7.065 12.354a4.959 4.959 0 1 1 9.917 0 4.959 4.959 0 0 1-9.917 0z"/>
</svg>
